; generated by Slic3r 0.9.8-dev on 2013-02-09 at 22:12:59

; layer_height = 0.20
; perimeters = 2
; top_solid_layers = 4
; bottom_solid_layers = 4
; fill_density = 0.25
; perimeter_speed = 40
; infill_speed = 40
; travel_speed = 40
; scale = 1
; nozzle_diameter = 0.35
; filament_diameter = 3
; extrusion_multiplier = 0.95
; perimeters extrusion width = 0.49mm
; infill extrusion width = 0.49mm
; support material extrusion width = 0.49mm
; first layer extrusion width = 0.37mm

M107 ; disable fan
M109 S80 ; wait for bed temperature to be reached
M104 S190 ; set temperature
(Machine: The Super Cupcake)
(Material: PLA)
(INITIALIZATION)
M73 P0          (enable build progress)
G21             (set units to mm)
G90             (set positioning to absolute)
M103            (Make sure extruder is off)
M104 S190 T0    (set extruder temperature)
M109 S100 T0    (set HBP temperature)
(HOMING)
G161 Z F60.0    (Move Z to minimum at 60 mm/min / 1 mm/s )
G92 X0 Y0 Z0 E0 (You are now at 0,0,0,0)
G90 ; use absolute coordinates
G21 ; set units to millimeters
G1 F900.000 E-1.00000 ; retract
G1 Z0.270 F78.000 ; move to next layer (0)
G1 X-9.353 Y-9.276 F2400.000 ; move to first skirt point
G1 F900.000 E0.00000 ; compensate retraction
G1 X-9.003 Y-9.616 F1560.000 E0.00644 ; skirt
G1 X-8.243 Y-10.276 E0.01973 ; skirt
G1 X-7.853 Y-10.586 E0.02630 ; skirt
G1 X-7.023 Y-11.156 E0.03959 ; skirt
G1 X-6.593 Y-11.416 E0.04623 ; skirt
G1 X-5.703 Y-11.886 E0.05951 ; skirt
G1 X-5.223 Y-12.106 E0.06648 ; skirt
G1 X-4.283 Y-12.466 E0.07977 ; skirt
G1 X-3.853 Y-12.596 E0.08570 ; skirt
G1 X-2.883 Y-12.856 E0.09895 ; skirt
G1 X-2.363 Y-12.966 E0.10597 ; skirt
G1 X-1.363 Y-13.106 E0.11929 ; skirt
G1 X-0.883 Y-13.146 E0.12565 ; skirt
G1 X0.127 Y-13.176 E0.13899 ; skirt
G1 X0.647 Y-13.166 E0.14585 ; skirt
G1 X1.647 Y-13.076 E0.15911 ; skirt
G1 X2.117 Y-13.006 E0.16538 ; skirt
G1 X3.107 Y-12.806 E0.17871 ; skirt
G1 X3.597 Y-12.676 E0.18540 ; skirt
G1 X4.547 Y-12.366 E0.19859 ; skirt
G1 X4.977 Y-12.206 E0.20465 ; skirt
G1 X5.897 Y-11.796 E0.21794 ; skirt
G1 X6.377 Y-11.536 E0.22515 ; skirt
G1 X7.237 Y-11.016 E0.23841 ; skirt
G1 X7.647 Y-10.736 E0.24497 ; skirt
G1 X8.447 Y-10.116 E0.25833 ; skirt
G1 X8.817 Y-9.796 E0.26478 ; skirt
G1 X9.537 Y-9.096 E0.27804 ; skirt
G1 X9.877 Y-8.726 E0.28467 ; skirt
G1 X10.507 Y-7.956 E0.29780 ; skirt
G1 X10.807 Y-7.546 E0.30451 ; skirt
G1 X11.357 Y-6.686 E0.31798 ; skirt
G1 X12.027 Y-5.386 E0.33729 ; skirt
G1 X12.247 Y-4.866 E0.34474 ; skirt
G1 X12.577 Y-3.916 E0.35801 ; skirt
G1 X12.707 Y-3.486 E0.36394 ; skirt
G1 X12.937 Y-2.506 E0.37723 ; skirt
G1 X13.017 Y-2.026 E0.38365 ; skirt
G1 X13.137 Y-1.026 E0.39695 ; skirt
G1 X13.167 Y-0.506 E0.40382 ; skirt
G1 X13.167 Y0.494 E0.41702 ; skirt
G1 X13.137 Y1.014 E0.42389 ; skirt
G1 X13.017 Y2.014 E0.43719 ; skirt
G1 X12.937 Y2.484 E0.44348 ; skirt
G1 X12.707 Y3.474 E0.45690 ; skirt
G1 X12.577 Y3.934 E0.46321 ; skirt
G1 X12.247 Y4.874 E0.47636 ; skirt
G1 X12.037 Y5.354 E0.48327 ; skirt
G1 X11.587 Y6.264 E0.49667 ; skirt
G1 X11.347 Y6.694 E0.50317 ; skirt
G1 X10.807 Y7.534 E0.51635 ; skirt
G1 X10.507 Y7.944 E0.52306 ; skirt
G1 X9.867 Y8.724 E0.53638 ; skirt
G1 X9.537 Y9.084 E0.54282 ; skirt
G1 X8.817 Y9.784 E0.55608 ; skirt
G1 X8.447 Y10.104 E0.56253 ; skirt
G1 X7.657 Y10.714 E0.57571 ; skirt
G1 X7.257 Y10.994 E0.58215 ; skirt
G1 X6.387 Y11.524 E0.59560 ; skirt
G1 X5.927 Y11.764 E0.60245 ; skirt
G1 X5.007 Y12.184 E0.61580 ; skirt
G1 X4.547 Y12.364 E0.62232 ; skirt
G1 X3.597 Y12.674 E0.63551 ; skirt
G1 X3.107 Y12.804 E0.64220 ; skirt
G1 X2.117 Y13.004 E0.65553 ; skirt
G1 X1.607 Y13.074 E0.66232 ; skirt
G1 X0.617 Y13.154 E0.67543 ; skirt
G1 X0.267 Y13.164 E0.68005 ; skirt
G1 X-0.883 Y13.134 E0.69524 ; skirt
G1 X-1.363 Y13.094 E0.70160 ; skirt
G1 X-2.363 Y12.954 E0.71492 ; skirt
G1 X-2.843 Y12.864 E0.72137 ; skirt
G1 X-3.813 Y12.614 E0.73459 ; skirt
G1 X-4.323 Y12.444 E0.74169 ; skirt
G1 X-5.263 Y12.074 E0.75502 ; skirt
G1 X-5.703 Y11.874 E0.76140 ; skirt
G1 X-6.593 Y11.404 E0.77469 ; skirt
G1 X-7.023 Y11.144 E0.78132 ; skirt
G1 X-7.853 Y10.574 E0.79461 ; skirt
G1 X-8.243 Y10.264 E0.80119 ; skirt
G1 X-9.003 Y9.604 E0.81447 ; skirt
G1 X-9.353 Y9.264 E0.82091 ; skirt
G1 X-10.033 Y8.524 E0.83418 ; skirt
G1 X-10.353 Y8.144 E0.84073 ; skirt
G1 X-10.943 Y7.334 E0.85396 ; skirt
G1 X-11.203 Y6.924 E0.86037 ; skirt
G1 X-11.703 Y6.044 E0.87373 ; skirt
G1 X-11.933 Y5.574 E0.88064 ; skirt
G1 X-12.323 Y4.644 E0.89395 ; skirt
G1 X-12.493 Y4.174 E0.90054 ; skirt
G1 X-12.773 Y3.214 E0.91374 ; skirt
G1 X-12.883 Y2.754 E0.91999 ; skirt
G1 X-13.063 Y1.734 E0.93366 ; skirt
G1 X-13.123 Y1.194 E0.94083 ; skirt
G1 X-13.173 Y0.214 E0.95378 ; skirt
G1 X-13.173 Y-0.266 E0.96012 ; skirt
G1 X-13.113 Y-1.266 E0.97334 ; skirt
G1 X-13.053 Y-1.746 E0.97972 ; skirt
G1 X-12.883 Y-2.736 E0.99298 ; skirt
G1 X-12.773 Y-3.206 E0.99935 ; skirt
G1 X-12.493 Y-4.176 E1.01268 ; skirt
G1 X-12.323 Y-4.656 E1.01940 ; skirt
G1 X-11.933 Y-5.586 E1.03271 ; skirt
G1 X-11.713 Y-6.036 E1.03932 ; skirt
G1 X-11.223 Y-6.906 E1.05250 ; skirt
G1 X-10.943 Y-7.346 E1.05939 ; skirt
G1 X-10.343 Y-8.166 E1.07280 ; skirt
G1 X-10.033 Y-8.536 E1.07917 ; skirt
G1 X-9.390 Y-9.236 E1.09172 ; skirt
G1 X-9.353 Y-9.276 E1.09244 ; skirt
G1 F900.000 E0.09244 ; retract
G1 X-6.390 Y-3.547 F2400.000 ; move to first perimeter point
G1 F900.000 E1.09244 ; compensate retraction
G1 X0.555 Y-3.547 F1560.000 E1.18410 ; perimeter
G1 X0.555 Y-3.359 E1.18659 ; perimeter
G1 X1.170 Y-3.195 E1.19499 ; perimeter
G1 X1.707 Y-2.944 E1.20282 ; perimeter
G1 X2.193 Y-2.604 E1.21064 ; perimeter
G1 X2.612 Y-2.185 E1.21846 ; perimeter
G1 X2.951 Y-1.700 E1.22628 ; perimeter
G1 X3.202 Y-1.163 E1.23410 ; perimeter
G1 X3.355 Y-0.590 E1.24192 ; perimeter
G1 X3.407 Y-0.000 E1.24975 ; perimeter
G1 X3.355 Y0.590 E1.25757 ; perimeter
G1 X3.202 Y1.163 E1.26539 ; perimeter
G1 X2.951 Y1.700 E1.27321 ; perimeter
G1 X2.612 Y2.185 E1.28103 ; perimeter
G1 X2.193 Y2.604 E1.28886 ; perimeter
G1 X1.707 Y2.944 E1.29668 ; perimeter
G1 X1.170 Y3.195 E1.30450 ; perimeter
G1 X0.555 Y3.359 E1.31291 ; perimeter
G1 X0.555 Y3.547 E1.31539 ; perimeter
G1 X-6.390 Y3.547 E1.40706 ; perimeter
G1 X-6.390 Y-3.493 E1.49999 ; perimeter
G1 X-6.390 Y-3.547 E1.50071 ; perimeter
G1 X-6.026 Y-3.184 F2400.000 ; move to first perimeter point
G1 X0.191 Y-3.184 F1560.000 E1.58277 ; perimeter
G1 X0.191 Y-3.018 E1.58496 ; perimeter
G1 X0.534 Y-2.988 E1.58950 ; perimeter
G1 X1.045 Y-2.851 E1.59648 ; perimeter
G1 X1.525 Y-2.628 E1.60347 ; perimeter
G1 X1.958 Y-2.325 E1.61045 ; perimeter
G1 X2.332 Y-1.951 E1.61743 ; perimeter
G1 X2.635 Y-1.517 E1.62441 ; perimeter
G1 X2.859 Y-1.038 E1.63139 ; perimeter
G1 X2.996 Y-0.527 E1.63837 ; perimeter
G1 X3.042 Y-0.000 E1.64536 ; perimeter
G1 X2.996 Y0.527 E1.65234 ; perimeter
G1 X2.859 Y1.038 E1.65932 ; perimeter
G1 X2.635 Y1.517 E1.66630 ; perimeter
G1 X2.332 Y1.951 E1.67328 ; perimeter
G1 X1.958 Y2.325 E1.68026 ; perimeter
G1 X1.525 Y2.628 E1.68725 ; perimeter
G1 X1.045 Y2.851 E1.69423 ; perimeter
G1 X0.534 Y2.988 E1.70121 ; perimeter
G1 X0.191 Y3.018 E1.70576 ; perimeter
G1 X0.191 Y3.184 E1.70794 ; perimeter
G1 X-6.026 Y3.184 E1.79001 ; perimeter
G1 X-6.026 Y-3.129 E1.87333 ; perimeter
G1 X-6.026 Y-3.184 E1.87405 ; perimeter
G1 X-6.026 Y-3.547 F2400.000 ; move inwards before travel
G1 F900.000 E0.87405 ; retract
G1 X6.234 Y-5.715 F2400.000 ; move to first perimeter point
G1 F900.000 E1.87405 ; compensate retraction
G1 X6.845 Y-4.968 F1560.000 E1.88679 ; perimeter
G1 X7.367 Y-4.156 E1.89953 ; perimeter
G1 X7.792 Y-3.290 E1.91226 ; perimeter
G1 X8.117 Y-2.381 E1.92500 ; perimeter
G1 X8.335 Y-1.441 E1.93774 ; perimeter
G1 X8.445 Y-0.482 E1.95048 ; perimeter
G1 X8.445 Y0.482 E1.96321 ; perimeter
G1 X8.335 Y1.441 E1.97595 ; perimeter
G1 X8.117 Y2.381 E1.98869 ; perimeter
G1 X7.792 Y3.290 E2.00142 ; perimeter
G1 X7.367 Y4.156 E2.01416 ; perimeter
G1 X6.845 Y4.968 E2.02690 ; perimeter
G1 X6.234 Y5.715 E2.03964 ; perimeter
G1 X5.542 Y6.387 E2.05237 ; perimeter
G1 X4.778 Y6.977 E2.06511 ; perimeter
G1 X3.951 Y7.475 E2.07785 ; perimeter
G1 X3.074 Y7.876 E2.09058 ; perimeter
G1 X2.156 Y8.174 E2.10332 ; perimeter
G1 X1.210 Y8.366 E2.11606 ; perimeter
G1 X0.249 Y8.448 E2.12880 ; perimeter
G1 X-0.716 Y8.421 E2.14153 ; perimeter
G1 X-1.671 Y8.283 E2.15427 ; perimeter
G1 X-2.604 Y8.038 E2.16701 ; perimeter
G1 X-3.504 Y7.688 E2.17974 ; perimeter
G1 X-4.357 Y7.238 E2.19248 ; perimeter
G1 X-5.154 Y6.693 E2.20522 ; perimeter
G1 X-5.883 Y6.061 E2.21796 ; perimeter
G1 X-6.535 Y5.350 E2.23069 ; perimeter
G1 X-7.103 Y4.569 E2.24343 ; perimeter
G1 X-7.577 Y3.729 E2.25617 ; perimeter
G1 X-7.953 Y2.840 E2.26890 ; perimeter
G1 X-8.226 Y1.909 E2.28172 ; perimeter
G1 X-8.391 Y0.954 E2.29450 ; perimeter
G1 X-8.445 Y0.000 E2.30712 ; perimeter
G1 X-8.391 Y-0.955 E2.31974 ; perimeter
G1 X-8.226 Y-1.909 E2.33252 ; perimeter
G1 X-7.953 Y-2.840 E2.34533 ; perimeter
G1 X-7.577 Y-3.729 E2.35807 ; perimeter
G1 X-7.103 Y-4.569 E2.37081 ; perimeter
G1 X-6.535 Y-5.350 E2.38354 ; perimeter
G1 X-5.883 Y-6.061 E2.39628 ; perimeter
G1 X-5.154 Y-6.693 E2.40902 ; perimeter
G1 X-4.357 Y-7.238 E2.42175 ; perimeter
G1 X-3.504 Y-7.688 E2.43449 ; perimeter
G1 X-2.604 Y-8.038 E2.44723 ; perimeter
G1 X-1.671 Y-8.283 E2.45997 ; perimeter
G1 X-0.716 Y-8.421 E2.47270 ; perimeter
G1 X0.249 Y-8.448 E2.48544 ; perimeter
G1 X1.210 Y-8.366 E2.49818 ; perimeter
G1 X2.156 Y-8.174 E2.51091 ; perimeter
G1 X3.074 Y-7.876 E2.52365 ; perimeter
G1 X3.951 Y-7.475 E2.53639 ; perimeter
G1 X4.778 Y-6.977 E2.54913 ; perimeter
G1 X5.542 Y-6.387 E2.56186 ; perimeter
G1 X6.195 Y-5.753 E2.57388 ; perimeter
G1 X6.234 Y-5.715 E2.57460 ; perimeter
G1 X6.495 Y-5.969 F2400.000 ; move to first perimeter point
G1 X7.140 Y-5.182 F936.000 E2.58803 ; perimeter
G1 X7.684 Y-4.335 E2.60131 ; perimeter
G1 X8.128 Y-3.432 E2.61460 ; perimeter
G1 X8.466 Y-2.484 E2.62789 ; perimeter
G1 X8.694 Y-1.503 E2.64117 ; perimeter
G1 X8.809 Y-0.503 E2.65446 ; perimeter
G1 X8.809 Y0.503 E2.66774 ; perimeter
G1 X8.694 Y1.503 E2.68103 ; perimeter
G1 X8.466 Y2.484 E2.69432 ; perimeter
G1 X8.128 Y3.432 E2.70760 ; perimeter
G1 X7.684 Y4.335 E2.72089 ; perimeter
G1 X7.140 Y5.182 E2.73418 ; perimeter
G1 X6.502 Y5.961 E2.74746 ; perimeter
G1 X5.781 Y6.663 E2.76075 ; perimeter
G1 X4.983 Y7.277 E2.77403 ; perimeter
G1 X4.121 Y7.797 E2.78732 ; perimeter
G1 X3.216 Y8.211 E2.80046 ; perimeter
G1 X2.249 Y8.526 E2.81389 ; perimeter
G1 X1.262 Y8.726 E2.82718 ; perimeter
G1 X0.259 Y8.812 E2.84046 ; perimeter
G1 X-0.747 Y8.784 E2.85375 ; perimeter
G1 X-1.743 Y8.640 E2.86704 ; perimeter
G1 X-2.717 Y8.384 E2.88032 ; perimeter
G1 X-3.655 Y8.019 E2.89361 ; perimeter
G1 X-4.545 Y7.550 E2.90690 ; perimeter
G1 X-5.376 Y6.981 E2.92018 ; perimeter
G1 X-6.137 Y6.322 E2.93347 ; perimeter
G1 X-6.817 Y5.581 E2.94675 ; perimeter
G1 X-7.409 Y4.766 E2.96004 ; perimeter
G1 X-7.904 Y3.890 E2.97333 ; perimeter
G1 X-8.296 Y2.963 E2.98661 ; perimeter
G1 X-8.580 Y1.994 E2.99993 ; perimeter
G1 X-8.752 Y0.999 E3.01326 ; perimeter
G1 X-8.809 Y-0.000 E3.02647 ; perimeter
G1 X-8.752 Y-1.001 E3.03971 ; perimeter
G1 X-8.580 Y-1.994 E3.05301 ; perimeter
G1 X-8.296 Y-2.963 E3.06633 ; perimeter
G1 X-7.904 Y-3.890 E3.07962 ; perimeter
G1 X-7.409 Y-4.766 E3.09290 ; perimeter
G1 X-6.824 Y-5.572 E3.10605 ; perimeter
G1 X-6.137 Y-6.322 E3.11948 ; perimeter
G1 X-5.376 Y-6.981 E3.13276 ; perimeter
G1 X-4.545 Y-7.550 E3.14605 ; perimeter
G1 X-3.655 Y-8.019 E3.15934 ; perimeter
G1 X-2.727 Y-8.381 E3.17248 ; perimeter
G1 X-1.743 Y-8.640 E3.18591 ; perimeter
G1 X-0.747 Y-8.784 E3.19919 ; perimeter
G1 X0.259 Y-8.812 E3.21248 ; perimeter
G1 X1.262 Y-8.726 E3.22577 ; perimeter
G1 X2.238 Y-8.528 E3.23891 ; perimeter
G1 X3.206 Y-8.215 E3.25234 ; perimeter
G1 X4.121 Y-7.797 E3.26562 ; perimeter
G1 X4.983 Y-7.277 E3.27891 ; perimeter
G1 X5.781 Y-6.663 E3.29220 ; perimeter
G1 X6.456 Y-6.007 E3.30462 ; perimeter
G1 X6.495 Y-5.969 E3.30534 ; perimeter
G1 X6.379 Y-5.624 F2400.000 ; move inwards before travel
G1 X6.082 Y-5.352 ; move to first fill point
G1 X5.846 Y-5.588 F1560.000 E3.30979 ; fill
G1 F900.000 E2.30979 ; retract
G1 X7.273 Y-3.641 F2400.000 ; move to first fill point
G1 F900.000 E3.30979 ; compensate retraction
G1 X3.629 Y-7.285 F1560.000 E3.37850 ; fill
G1 X2.703 Y-7.692 E3.39199 ; fill
G1 X7.689 Y-2.706 E3.48601 ; fill
G1 X7.934 Y-1.941 E3.49672 ; fill
G1 X1.935 Y-7.940 E3.60983 ; fill
G1 X1.284 Y-8.072 E3.61870 ; fill
G1 X8.092 Y-1.264 E3.74707 ; fill
G1 X8.159 Y-0.677 E3.75495 ; fill
G1 X0.684 Y-8.152 E3.89589 ; fill
G1 X0.117 Y-8.200 E3.90348 ; fill
G1 X8.197 Y-0.119 E4.05584 ; fill
G1 X8.197 Y0.400 E4.06277 ; fill
G1 X-0.388 Y-8.185 E4.22465 ; fill
G1 X-0.884 Y-8.161 E4.23127 ; fill
G1 X8.162 Y0.885 E4.40184 ; fill
G1 X8.109 Y1.351 E4.40810 ; fill
G1 X-1.339 Y-8.096 E4.58622 ; fill
G1 X-1.785 Y-8.023 E4.59226 ; fill
G1 X8.024 Y1.786 E4.77722 ; fill
G1 F900.000 E3.77722 ; retract
G1 X0.884 Y-3.795 F2400.000 ; move to first fill point
G1 F900.000 E4.77722 ; compensate retraction
G1 X-2.982 Y-7.661 F1560.000 E4.85011 ; fill
G1 X-3.356 Y-7.516 E4.85547 ; fill
G1 X0.364 Y-3.795 E4.92561 ; fill
G1 X-0.155 Y-3.795 E4.93254 ; fill
G1 X-3.707 Y-7.346 E4.99950 ; fill
G1 X-4.047 Y-7.167 E5.00463 ; fill
G1 X-0.675 Y-3.795 E5.06820 ; fill
G1 X-1.195 Y-3.795 E5.07512 ; fill
G1 X-4.377 Y-6.978 E5.13513 ; fill
G1 X-4.686 Y-6.767 E5.14012 ; fill
G1 X-1.714 Y-3.795 E5.19615 ; fill
G1 X-2.234 Y-3.795 E5.20308 ; fill
G1 X-4.995 Y-6.556 E5.25513 ; fill
G1 X-5.278 Y-6.320 E5.26005 ; fill
G1 X-2.753 Y-3.795 E5.30765 ; fill
G1 X-3.273 Y-3.795 E5.31458 ; fill
G1 X-5.556 Y-6.079 E5.35763 ; fill
G1 X-5.825 Y-5.828 E5.36253 ; fill
G1 X-3.793 Y-3.795 E5.40085 ; fill
G1 X-4.312 Y-3.795 E5.40778 ; fill
G1 X-6.074 Y-5.557 E5.44099 ; fill
G1 X-6.323 Y-5.286 E5.44590 ; fill
G1 X-4.832 Y-3.795 E5.47400 ; fill
G1 X-5.352 Y-3.795 E5.48093 ; fill
G1 X-6.549 Y-4.993 E5.50352 ; fill
G1 X-6.771 Y-4.695 E5.50847 ; fill
G1 X-5.871 Y-3.795 E5.52544 ; fill
G1 X-6.391 Y-3.795 E5.53236 ; fill
G1 X-6.974 Y-4.379 E5.54336 ; fill
G1 X-7.161 Y-4.046 E5.54844 ; fill
G1 X-6.638 Y-3.523 E5.55831 ; fill
G1 X-6.638 Y-3.004 E5.56524 ; fill
G1 X-7.349 Y-3.714 E5.57864 ; fill
G1 X-7.506 Y-3.352 E5.58391 ; fill
G1 X-6.638 Y-2.484 E5.60028 ; fill
G1 X-6.638 Y-1.964 E5.60720 ; fill
G1 X-7.661 Y-2.987 E5.62649 ; fill
G1 X-7.794 Y-2.601 E5.63193 ; fill
G1 X-6.638 Y-1.445 E5.65373 ; fill
G1 X-6.638 Y-0.925 E5.66066 ; fill
G1 X-7.912 Y-2.199 E5.68467 ; fill
G1 X-8.014 Y-1.782 E5.69040 ; fill
G1 X-6.638 Y-0.405 E5.71635 ; fill
G1 X-6.638 Y0.114 E5.72328 ; fill
G1 X-8.091 Y-1.339 E5.75067 ; fill
G1 X-8.153 Y-0.881 E5.75683 ; fill
G1 X-6.638 Y0.634 E5.78540 ; fill
G1 X-6.638 Y1.153 E5.79232 ; fill
G1 X-8.181 Y-0.390 E5.82141 ; fill
G1 X-8.183 Y0.128 E5.82832 ; fill
G1 X-6.638 Y1.673 E5.85744 ; fill
G1 X-6.638 Y2.193 E5.86437 ; fill
G1 X-8.151 Y0.679 E5.89290 ; fill
G1 X-8.059 Y1.291 E5.90115 ; fill
G1 X-6.638 Y2.712 E5.92794 ; fill
G1 X-6.638 Y3.232 E5.93487 ; fill
G1 X-7.916 Y1.954 E5.95896 ; fill
G1 X-7.680 Y2.709 E5.96951 ; fill
G1 X-6.638 Y3.751 E5.98915 ; fill
G1 X-6.594 Y3.795 F2400.000 ; move to first fill point
G1 X-2.714 Y7.676 F1560.000 E6.06232 ; fill
G1 X-1.951 Y7.919 E6.07300 ; fill
G1 X-6.074 Y3.795 E6.15075 ; fill
G1 X-5.555 Y3.795 F2400.000 ; move to first fill point
G1 X-1.279 Y8.071 F1560.000 E6.23137 ; fill
G1 X-0.672 Y8.159 E6.23955 ; fill
G1 X-5.035 Y3.795 E6.32182 ; fill
G1 X-4.516 Y3.795 E6.32875 ; fill
G1 X-0.125 Y8.186 E6.41153 ; fill
G1 X0.404 Y8.196 E6.41859 ; fill
G1 X-3.996 Y3.795 E6.50155 ; fill
G1 X-3.476 Y3.795 E6.50848 ; fill
G1 X0.883 Y8.154 E6.59067 ; fill
G1 X1.353 Y8.105 E6.59697 ; fill
G1 X-2.957 Y3.795 E6.67823 ; fill
G1 X-2.437 Y3.795 E6.68516 ; fill
G1 X1.785 Y8.017 E6.76476 ; fill
G1 X2.213 Y7.926 E6.77060 ; fill
G1 X-1.918 Y3.795 E6.84849 ; fill
G1 X-1.398 Y3.795 E6.85542 ; fill
G1 X2.605 Y7.799 E6.93090 ; fill
G1 X2.998 Y7.671 E6.93640 ; fill
G1 X-0.878 Y3.795 E7.00949 ; fill
G1 X-0.359 Y3.795 E7.01641 ; fill
G1 X3.360 Y7.514 E7.08653 ; fill
G1 X3.716 Y7.351 E7.09175 ; fill
G1 X0.161 Y3.795 E7.15880 ; fill
G1 X0.680 Y3.795 E7.16572 ; fill
