; generated by Slic3r 0.9.8-dev on 2013-02-09 at 21:39:36

; layer_height = 0.20
; perimeters = 2
; top_solid_layers = 4
; bottom_solid_layers = 4
; fill_density = 0.25
; perimeter_speed = 40
; infill_speed = 40
; travel_speed = 40
; scale = 1
; nozzle_diameter = 0.35
; filament_diameter = 3
; extrusion_multiplier = 0.95
; perimeters extrusion width = 0.49mm
; infill extrusion width = 0.49mm
; support material extrusion width = 0.49mm
; first layer extrusion width = 0.37mm

M107 ; disable fan
M109 S80 ; wait for bed temperature to be reached
M104 S190 ; set temperature
(Machine: The Super Cupcake)
(Material: PLA)
(INITIALIZATION)
M73 P0          (enable build progress)
G21             (set units to mm)
G90             (set positioning to absolute)
M103            (Make sure extruder is off)
M104 S190 T0    (set extruder temperature)
M109 S100 T0    (set HBP temperature)
M6 T0           (wait for heaters to reach temperature)
(HOMING)
G161 Z F60.0    (Move Z to minimum at 60 mm/min / 1 mm/s )
G92 X0 Y0 Z0 E0 (You are now at 0,0,0,0)
G90 ; use absolute coordinates
G21 ; set units to millimeters
G1 F900.000 E-1.00000 ; retract
G1 Z0.270 F78.000 ; move to next layer (0)
G1 X-9.353 Y-9.276 F2400.000 ; move to first skirt point
G1 F900.000 E0.00000 ; compensate retraction
G1 X-9.003 Y-9.626 F1560.000 E0.00653 ; skirt
G1 X-8.253 Y-10.276 E0.01963 ; skirt
G1 X-7.873 Y-10.566 E0.02594 ; skirt
G1 X-7.033 Y-11.146 E0.03942 ; skirt
G1 X-6.593 Y-11.416 E0.04623 ; skirt
G1 X-5.703 Y-11.886 E0.05952 ; skirt
G1 X-5.223 Y-12.106 E0.06648 ; skirt
G1 X-4.283 Y-12.466 E0.07977 ; skirt
G1 X-3.853 Y-12.596 E0.08570 ; skirt
G1 X-2.883 Y-12.856 E0.09896 ; skirt
G1 X-2.363 Y-12.966 E0.10597 ; skirt
G1 X-1.363 Y-13.106 E0.11930 ; skirt
G1 X-0.883 Y-13.146 E0.12566 ; skirt
G1 X0.127 Y-13.176 E0.13899 ; skirt
G1 X0.647 Y-13.166 E0.14586 ; skirt
G1 X1.647 Y-13.076 E0.15911 ; skirt
G1 X2.117 Y-13.006 E0.16538 ; skirt
G1 X3.107 Y-12.806 E0.17871 ; skirt
G1 X3.597 Y-12.676 E0.18541 ; skirt
G1 X4.547 Y-12.366 E0.19860 ; skirt
G1 X4.977 Y-12.206 E0.20465 ; skirt
G1 X5.897 Y-11.796 E0.21795 ; skirt
G1 X6.377 Y-11.536 E0.22515 ; skirt
G1 X7.237 Y-11.016 E0.23842 ; skirt
G1 X7.647 Y-10.736 E0.24497 ; skirt
G1 X8.447 Y-10.116 E0.25833 ; skirt
G1 X8.817 Y-9.796 E0.26479 ; skirt
G1 X9.537 Y-9.096 E0.27804 ; skirt
G1 X9.867 Y-8.736 E0.28449 ; skirt
G1 X10.507 Y-7.956 E0.29781 ; skirt
G1 X10.817 Y-7.526 E0.30480 ; skirt
G1 X11.357 Y-6.676 E0.31809 ; skirt
G1 X11.577 Y-6.286 E0.32400 ; skirt
G1 X12.027 Y-5.386 E0.33729 ; skirt
G1 X12.247 Y-4.866 E0.34474 ; skirt
G1 X12.577 Y-3.916 E0.35801 ; skirt
G1 X12.707 Y-3.486 E0.36394 ; skirt
G1 X12.937 Y-2.506 E0.37723 ; skirt
G1 X13.017 Y-2.026 E0.38365 ; skirt
G1 X13.137 Y-1.026 E0.39695 ; skirt
G1 X13.167 Y-0.506 E0.40382 ; skirt
G1 X13.167 Y0.494 E0.41702 ; skirt
G1 X13.137 Y1.014 E0.42390 ; skirt
G1 X13.017 Y2.014 E0.43719 ; skirt
G1 X12.937 Y2.484 E0.44348 ; skirt
G1 X12.707 Y3.474 E0.45690 ; skirt
G1 X12.577 Y3.934 E0.46321 ; skirt
G1 X12.247 Y4.874 E0.47636 ; skirt
G1 X12.037 Y5.354 E0.48327 ; skirt
G1 X11.587 Y6.264 E0.49667 ; skirt
G1 X11.347 Y6.694 E0.50317 ; skirt
G1 X10.807 Y7.534 E0.51635 ; skirt
G1 X10.507 Y7.944 E0.52306 ; skirt
G1 X9.867 Y8.724 E0.53638 ; skirt
G1 X9.537 Y9.084 E0.54282 ; skirt
G1 X8.817 Y9.784 E0.55608 ; skirt
G1 X8.447 Y10.104 E0.56253 ; skirt
G1 X7.647 Y10.724 E0.57589 ; skirt
G1 X7.237 Y11.004 E0.58245 ; skirt
G1 X6.377 Y11.524 E0.59571 ; skirt
G1 X5.927 Y11.764 E0.60244 ; skirt
G1 X5.007 Y12.184 E0.61579 ; skirt
G1 X4.547 Y12.364 E0.62231 ; skirt
G1 X3.597 Y12.674 E0.63550 ; skirt
G1 X3.107 Y12.804 E0.64219 ; skirt
G1 X2.117 Y13.004 E0.65553 ; skirt
G1 X1.607 Y13.074 E0.66232 ; skirt
G1 X0.617 Y13.154 E0.67543 ; skirt
G1 X0.267 Y13.164 E0.68005 ; skirt
G1 X-0.883 Y13.134 E0.69524 ; skirt
G1 X-1.363 Y13.094 E0.70159 ; skirt
G1 X-2.363 Y12.954 E0.71492 ; skirt
G1 X-2.843 Y12.864 E0.72137 ; skirt
G1 X-3.813 Y12.614 E0.73459 ; skirt
G1 X-4.323 Y12.444 E0.74169 ; skirt
G1 X-5.263 Y12.074 E0.75502 ; skirt
G1 X-5.703 Y11.874 E0.76140 ; skirt
G1 X-6.593 Y11.404 E0.77468 ; skirt
G1 X-7.023 Y11.144 E0.78132 ; skirt
G1 X-7.853 Y10.574 E0.79461 ; skirt
G1 X-8.243 Y10.264 E0.80118 ; skirt
G1 X-9.003 Y9.604 E0.81447 ; skirt
G1 X-9.353 Y9.264 E0.82091 ; skirt
G1 X-10.033 Y8.524 E0.83417 ; skirt
G1 X-10.333 Y8.164 E0.84036 ; skirt
G1 X-10.923 Y7.364 E0.85348 ; skirt
G1 X-11.213 Y6.914 E0.86055 ; skirt
G1 X-11.713 Y6.024 E0.87402 ; skirt
G1 X-11.933 Y5.574 E0.88063 ; skirt
G1 X-12.323 Y4.644 E0.89394 ; skirt
G1 X-12.493 Y4.174 E0.90054 ; skirt
G1 X-12.773 Y3.214 E0.91374 ; skirt
G1 X-12.883 Y2.754 E0.91998 ; skirt
G1 X-13.063 Y1.734 E0.93365 ; skirt
G1 X-13.123 Y1.194 E0.94083 ; skirt
G1 X-13.173 Y0.214 E0.95378 ; skirt
G1 X-13.173 Y-0.266 E0.96011 ; skirt
G1 X-13.113 Y-1.266 E0.97334 ; skirt
G1 X-13.053 Y-1.746 E0.97972 ; skirt
G1 X-12.883 Y-2.736 E0.99298 ; skirt
G1 X-12.773 Y-3.206 E0.99935 ; skirt
G1 X-12.493 Y-4.176 E1.01268 ; skirt
G1 X-12.323 Y-4.656 E1.01940 ; skirt
G1 X-11.933 Y-5.586 E1.03271 ; skirt
G1 X-11.693 Y-6.066 E1.03979 ; skirt
G1 X-11.193 Y-6.936 E1.05304 ; skirt
G1 X-10.953 Y-7.316 E1.05897 ; skirt
G1 X-10.363 Y-8.136 E1.07230 ; skirt
G1 X-10.033 Y-8.536 E1.07915 ; skirt
G1 X-9.390 Y-9.236 E1.09169 ; skirt
G1 X-9.353 Y-9.276 E1.09241 ; skirt
G1 F900.000 E0.09241 ; retract
G1 X-6.540 Y-3.547 F2400.000 ; move to first perimeter point
G1 F900.000 E1.09241 ; compensate retraction
G1 X0.031 Y-3.547 F1560.000 E1.17915 ; perimeter
G1 X0.624 Y-3.496 E1.18700 ; perimeter
G1 X1.221 Y-3.336 E1.19517 ; perimeter
G1 X1.782 Y-3.074 E1.20334 ; perimeter
G1 X2.289 Y-2.719 E1.21150 ; perimeter
G1 X2.726 Y-2.282 E1.21967 ; perimeter
G1 X3.081 Y-1.775 E1.22784 ; perimeter
G1 X3.343 Y-1.214 E1.23600 ; perimeter
G1 X3.503 Y-0.616 E1.24417 ; perimeter
G1 X3.557 Y-0.000 E1.25234 ; perimeter
G1 X3.503 Y0.616 E1.26050 ; perimeter
G1 X3.343 Y1.214 E1.26867 ; perimeter
G1 X3.081 Y1.775 E1.27684 ; perimeter
G1 X2.726 Y2.282 E1.28500 ; perimeter
G1 X2.289 Y2.719 E1.29317 ; perimeter
G1 X1.782 Y3.074 E1.30134 ; perimeter
G1 X1.221 Y3.336 E1.30950 ; perimeter
G1 X0.624 Y3.496 E1.31767 ; perimeter
G1 X0.031 Y3.547 E1.32552 ; perimeter
G1 X-6.540 Y3.547 E1.41226 ; perimeter
G1 X-6.540 Y-3.493 E1.50519 ; perimeter
G1 X-6.540 Y-3.547 E1.50591 ; perimeter
G1 X-6.176 Y-3.184 F2400.000 ; move to first perimeter point
G1 X0.015 Y-3.184 F1560.000 E1.58764 ; perimeter
G1 X0.560 Y-3.136 E1.59486 ; perimeter
G1 X1.096 Y-2.992 E1.60218 ; perimeter
G1 X1.600 Y-2.758 E1.60951 ; perimeter
G1 X2.054 Y-2.439 E1.61684 ; perimeter
G1 X2.447 Y-2.047 E1.62416 ; perimeter
G1 X2.765 Y-1.592 E1.63149 ; perimeter
G1 X3.000 Y-1.089 E1.63882 ; perimeter
G1 X3.143 Y-0.553 E1.64614 ; perimeter
G1 X3.192 Y-0.000 E1.65347 ; perimeter
G1 X3.143 Y0.553 E1.66080 ; perimeter
G1 X3.000 Y1.089 E1.66812 ; perimeter
G1 X2.765 Y1.592 E1.67545 ; perimeter
G1 X2.447 Y2.047 E1.68278 ; perimeter
G1 X2.054 Y2.439 E1.69010 ; perimeter
G1 X1.600 Y2.758 E1.69743 ; perimeter
G1 X1.096 Y2.992 E1.70476 ; perimeter
G1 X0.560 Y3.136 E1.71208 ; perimeter
G1 X0.015 Y3.184 E1.71930 ; perimeter
G1 X-6.176 Y3.184 E1.80103 ; perimeter
G1 X-6.176 Y-3.129 E1.88436 ; perimeter
G1 X-6.176 Y-3.184 E1.88508 ; perimeter
G1 X-6.176 Y-3.547 F2400.000 ; move inwards before travel
G1 X-7.577 Y-3.729 ; move to first perimeter point
G1 X-7.103 Y-4.569 F1560.000 E1.89782 ; perimeter
G1 X-6.535 Y-5.350 E1.91055 ; perimeter
G1 X-5.883 Y-6.061 E1.92329 ; perimeter
G1 X-5.154 Y-6.693 E1.93603 ; perimeter
G1 X-4.357 Y-7.238 E1.94876 ; perimeter
G1 X-3.504 Y-7.688 E1.96150 ; perimeter
G1 X-2.604 Y-8.038 E1.97424 ; perimeter
G1 X-1.671 Y-8.283 E1.98698 ; perimeter
G1 X-0.716 Y-8.421 E1.99971 ; perimeter
G1 X0.249 Y-8.448 E2.01245 ; perimeter
G1 X1.210 Y-8.366 E2.02519 ; perimeter
G1 X2.156 Y-8.174 E2.03792 ; perimeter
G1 X3.074 Y-7.876 E2.05066 ; perimeter
G1 X3.951 Y-7.475 E2.06340 ; perimeter
G1 X4.778 Y-6.977 E2.07614 ; perimeter
G1 X5.542 Y-6.387 E2.08887 ; perimeter
G1 X6.234 Y-5.715 E2.10161 ; perimeter
G1 X6.845 Y-4.968 E2.11435 ; perimeter
G1 X7.367 Y-4.156 E2.12708 ; perimeter
G1 X7.792 Y-3.290 E2.13982 ; perimeter
G1 X8.117 Y-2.381 E2.15256 ; perimeter
G1 X8.335 Y-1.441 E2.16530 ; perimeter
G1 X8.445 Y-0.482 E2.17803 ; perimeter
G1 X8.445 Y0.482 E2.19077 ; perimeter
G1 X8.335 Y1.441 E2.20351 ; perimeter
G1 X8.117 Y2.381 E2.21624 ; perimeter
G1 X7.792 Y3.290 E2.22898 ; perimeter
G1 X7.367 Y4.156 E2.24172 ; perimeter
G1 X6.845 Y4.968 E2.25446 ; perimeter
G1 X6.234 Y5.715 E2.26719 ; perimeter
G1 X5.542 Y6.387 E2.27993 ; perimeter
G1 X4.778 Y6.977 E2.29267 ; perimeter
G1 X3.951 Y7.475 E2.30540 ; perimeter
G1 X3.074 Y7.876 E2.31814 ; perimeter
G1 X2.156 Y8.174 E2.33088 ; perimeter
G1 X1.210 Y8.366 E2.34362 ; perimeter
G1 X0.249 Y8.448 E2.35635 ; perimeter
G1 X-0.716 Y8.421 E2.36909 ; perimeter
G1 X-1.671 Y8.283 E2.38183 ; perimeter
G1 X-2.604 Y8.038 E2.39456 ; perimeter
G1 X-3.504 Y7.688 E2.40730 ; perimeter
G1 X-4.357 Y7.238 E2.42004 ; perimeter
G1 X-5.154 Y6.693 E2.43278 ; perimeter
G1 X-5.883 Y6.061 E2.44551 ; perimeter
G1 X-6.535 Y5.350 E2.45825 ; perimeter
G1 X-7.103 Y4.569 E2.47099 ; perimeter
G1 X-7.577 Y3.729 E2.48372 ; perimeter
G1 X-7.953 Y2.840 E2.49646 ; perimeter
G1 X-8.226 Y1.909 E2.50927 ; perimeter
G1 X-8.391 Y0.954 E2.52206 ; perimeter
G1 X-8.445 Y0.000 E2.53467 ; perimeter
G1 X-8.391 Y-0.955 E2.54730 ; perimeter
G1 X-8.226 Y-1.909 E2.56008 ; perimeter
G1 X-7.953 Y-2.840 E2.57289 ; perimeter
G1 X-7.598 Y-3.679 E2.58490 ; perimeter
G1 X-7.577 Y-3.729 E2.58563 ; perimeter
G1 X-7.908 Y-3.880 F2400.000 ; move to first perimeter point
G1 X-7.409 Y-4.766 F936.000 E2.59905 ; perimeter
G1 X-6.817 Y-5.581 E2.61234 ; perimeter
G1 X-6.137 Y-6.322 E2.62563 ; perimeter
G1 X-5.376 Y-6.981 E2.63891 ; perimeter
G1 X-4.554 Y-7.543 E2.65206 ; perimeter
G1 X-3.655 Y-8.019 E2.66548 ; perimeter
G1 X-2.717 Y-8.384 E2.67877 ; perimeter
G1 X-1.754 Y-8.638 E2.69191 ; perimeter
G1 X-0.747 Y-8.784 E2.70534 ; perimeter
G1 X0.259 Y-8.812 E2.71863 ; perimeter
G1 X1.262 Y-8.726 E2.73191 ; perimeter
G1 X2.249 Y-8.526 E2.74520 ; perimeter
G1 X3.206 Y-8.215 E2.75849 ; perimeter
G1 X4.121 Y-7.797 E2.77177 ; perimeter
G1 X4.983 Y-7.277 E2.78506 ; perimeter
G1 X5.781 Y-6.663 E2.79834 ; perimeter
G1 X6.495 Y-5.969 E2.81149 ; perimeter
G1 X7.140 Y-5.182 E2.82492 ; perimeter
G1 X7.684 Y-4.335 E2.83820 ; perimeter
G1 X8.128 Y-3.432 E2.85149 ; perimeter
G1 X8.466 Y-2.484 E2.86478 ; perimeter
G1 X8.694 Y-1.503 E2.87806 ; perimeter
G1 X8.809 Y-0.503 E2.89135 ; perimeter
G1 X8.809 Y0.503 E2.90463 ; perimeter
G1 X8.694 Y1.503 E2.91792 ; perimeter
G1 X8.466 Y2.484 E2.93121 ; perimeter
G1 X8.128 Y3.432 E2.94449 ; perimeter
G1 X7.684 Y4.335 E2.95778 ; perimeter
G1 X7.140 Y5.182 E2.97106 ; perimeter
G1 X6.502 Y5.961 E2.98435 ; perimeter
G1 X5.781 Y6.663 E2.99764 ; perimeter
G1 X4.983 Y7.277 E3.01092 ; perimeter
G1 X4.121 Y7.797 E3.02421 ; perimeter
G1 X3.206 Y8.215 E3.03750 ; perimeter
G1 X2.249 Y8.526 E3.05078 ; perimeter
G1 X1.262 Y8.726 E3.06407 ; perimeter
G1 X0.259 Y8.812 E3.07735 ; perimeter
G1 X-0.747 Y8.784 E3.09064 ; perimeter
G1 X-1.743 Y8.640 E3.10393 ; perimeter
G1 X-2.706 Y8.387 E3.11707 ; perimeter
G1 X-3.655 Y8.019 E3.13050 ; perimeter
G1 X-4.545 Y7.550 E3.14378 ; perimeter
G1 X-5.376 Y6.981 E3.15707 ; perimeter
G1 X-6.137 Y6.322 E3.17036 ; perimeter
G1 X-6.817 Y5.581 E3.18364 ; perimeter
G1 X-7.409 Y4.766 E3.19693 ; perimeter
G1 X-7.904 Y3.890 E3.21022 ; perimeter
G1 X-8.296 Y2.963 E3.22350 ; perimeter
G1 X-8.584 Y1.977 E3.23705 ; perimeter
G1 X-8.752 Y0.999 E3.25015 ; perimeter
G1 X-8.809 Y-0.011 E3.26350 ; perimeter
G1 X-8.752 Y-1.001 E3.27659 ; perimeter
G1 X-8.580 Y-1.994 E3.28990 ; perimeter
G1 X-8.296 Y-2.963 E3.30322 ; perimeter
G1 X-7.930 Y-3.830 E3.31564 ; perimeter
G1 X-7.908 Y-3.880 E3.31636 ; perimeter
G1 X-7.545 Y-3.897 F2400.000 ; move inwards before travel
G1 F900.000 E2.31636 ; retract
G1 X-6.788 Y3.601 F2400.000 ; move to first fill point
G1 F900.000 E3.31636 ; compensate retraction
G1 X-7.680 Y2.709 F1560.000 E3.33318 ; fill
G1 X-7.916 Y1.954 E3.34373 ; fill
G1 X-6.788 Y3.082 E3.36499 ; fill
G1 X-6.788 Y2.562 E3.37192 ; fill
G1 X-8.059 Y1.291 E3.39589 ; fill
G1 X-8.151 Y0.679 E3.40413 ; fill
G1 X-6.788 Y2.043 E3.42983 ; fill
G1 X-6.788 Y1.523 E3.43676 ; fill
G1 X-8.183 Y0.128 E3.46306 ; fill
G1 X-8.181 Y-0.390 E3.46996 ; fill
G1 X-6.788 Y1.003 E3.49622 ; fill
G1 X-6.788 Y0.484 E3.50315 ; fill
G1 X-8.153 Y-0.881 E3.52889 ; fill
G1 X-8.091 Y-1.339 E3.53504 ; fill
G1 X-6.788 Y-0.036 E3.55961 ; fill
G1 X-6.788 Y-0.555 E3.56654 ; fill
G1 X-8.014 Y-1.782 E3.58966 ; fill
G1 X-7.912 Y-2.199 E3.59539 ; fill
G1 X-6.788 Y-1.075 E3.61658 ; fill
G1 X-6.788 Y-1.595 E3.62351 ; fill
G1 X-7.794 Y-2.601 E3.64247 ; fill
G1 X-7.661 Y-2.987 E3.64792 ; fill
G1 X-6.788 Y-2.114 E3.66437 ; fill
G1 X-6.788 Y-2.634 E3.67130 ; fill
G1 X-7.506 Y-3.352 E3.68484 ; fill
G1 X-7.349 Y-3.714 E3.69011 ; fill
G1 X-6.788 Y-3.153 E3.70068 ; fill
G1 X-6.788 Y-3.673 E3.70761 ; fill
G1 X-7.161 Y-4.046 E3.71465 ; fill
G1 X-6.974 Y-4.379 E3.71974 ; fill
G1 X-6.391 Y-3.795 E3.73073 ; fill
G1 X-5.871 Y-3.795 E3.73766 ; fill
G1 X-6.765 Y-4.690 E3.75452 ; fill
G1 X-6.547 Y-4.991 E3.75948 ; fill
G1 X-5.352 Y-3.795 E3.78202 ; fill
G1 X-4.832 Y-3.795 E3.78895 ; fill
G1 X-6.323 Y-5.286 E3.81705 ; fill
G1 X-6.074 Y-5.557 E3.82195 ; fill
G1 X-4.312 Y-3.795 E3.85517 ; fill
G1 X-3.793 Y-3.795 E3.86210 ; fill
G1 X-5.825 Y-5.828 E3.90042 ; fill
G1 X-5.556 Y-6.079 E3.90532 ; fill
G1 X-3.273 Y-3.795 E3.94837 ; fill
G1 X-2.753 Y-3.795 E3.95530 ; fill
G1 X-5.278 Y-6.320 E4.00290 ; fill
G1 X-4.995 Y-6.556 E4.00782 ; fill
G1 X-2.234 Y-3.795 E4.05987 ; fill
G1 X-1.714 Y-3.795 E4.06680 ; fill
G1 X-4.686 Y-6.767 E4.12283 ; fill
G1 X-4.377 Y-6.978 E4.12781 ; fill
G1 X-1.195 Y-3.795 E4.18782 ; fill
G1 X-0.675 Y-3.795 E4.19475 ; fill
G1 X-4.047 Y-7.167 E4.25832 ; fill
G1 X-3.707 Y-7.346 E4.26345 ; fill
G1 X-0.155 Y-3.795 E4.33041 ; fill
G1 X0.383 Y-3.776 E4.33760 ; fill
G1 X-3.356 Y-7.516 E4.40811 ; fill
G1 X-2.982 Y-7.661 E4.41346 ; fill
G1 X0.990 Y-3.689 E4.48835 ; fill
G1 X1.788 Y-3.411 E4.49963 ; fill
G1 X-2.608 Y-7.807 E4.58252 ; fill
G1 X-2.197 Y-7.915 E4.58819 ; fill
G1 X7.926 Y2.208 E4.77906 ; fill
G1 X7.807 Y2.608 E4.78463 ; fill
G1 X3.418 Y-1.781 E4.86737 ; fill
G1 X3.697 Y-0.983 E4.87864 ; fill
G1 X7.670 Y2.991 E4.95356 ; fill
G1 X7.523 Y3.364 E4.95891 ; fill
G1 X3.783 Y-0.376 E5.02942 ; fill
G1 X3.784 Y0.144 E5.03635 ; fill
G1 X7.352 Y3.712 E5.10364 ; fill
G1 X7.181 Y4.061 E5.10882 ; fill
G1 X3.734 Y0.613 E5.17382 ; fill
G1 X3.624 Y1.023 E5.17947 ; fill
G1 X6.981 Y4.380 E5.24276 ; fill
G1 X6.777 Y4.696 E5.24778 ; fill
G1 X3.486 Y1.404 E5.30984 ; fill
G1 X3.320 Y1.759 E5.31506 ; fill
G1 X6.560 Y4.999 E5.37614 ; fill
G1 X6.326 Y5.285 E5.38107 ; fill
G1 X3.118 Y2.076 E5.44157 ; fill
G1 X2.904 Y2.381 E5.44654 ; fill
G1 X6.093 Y5.570 E5.50667 ; fill
G1 X5.831 Y5.828 E5.51157 ; fill
G1 X2.647 Y2.644 E5.57160 ; fill
G1 X2.383 Y2.900 E5.57650 ; fill
G1 X5.567 Y6.084 E5.63653 ; fill
G1 X5.290 Y6.327 E5.64144 ; fill
G1 X2.078 Y3.114 E5.70202 ; fill
G1 X1.760 Y3.316 E5.70704 ; fill
G1 X4.997 Y6.553 E5.76808 ; fill
G1 X4.704 Y6.779 E5.77302 ; fill
G1 X1.405 Y3.481 E5.83521 ; fill
G1 X1.023 Y3.618 E5.84062 ; fill
G1 X4.381 Y6.977 E5.90394 ; fill
G1 X4.057 Y7.172 E5.90899 ; fill
G1 X0.613 Y3.728 E5.97392 ; fill
G1 X0.142 Y3.777 E5.98023 ; fill
G1 X3.716 Y7.351 E6.04762 ; fill
G1 X3.360 Y7.514 E6.05285 ; fill
G1 X-0.359 Y3.795 E6.12297 ; fill
G1 X-0.878 Y3.795 E6.12989 ; fill
G1 X2.998 Y7.671 E6.20298 ; fill
G1 X2.605 Y7.799 E6.20847 ; fill
G1 X-1.398 Y3.795 E6.28396 ; fill
G1 X-1.918 Y3.795 E6.29089 ; fill
G1 X2.213 Y7.926 E6.36878 ; fill
G1 X1.785 Y8.017 E6.37462 ; fill
G1 X-2.437 Y3.795 E6.45422 ; fill
G1 X-2.957 Y3.795 E6.46115 ; fill
G1 X1.353 Y8.105 E6.54241 ; fill
G1 X0.883 Y8.154 E6.54871 ; fill
G1 X-3.476 Y3.795 E6.63090 ; fill
G1 X-3.996 Y3.795 E6.63783 ; fill
G1 X0.404 Y8.196 E6.72079 ; fill
G1 X-0.125 Y8.186 E6.72785 ; fill
G1 X-4.516 Y3.795 E6.81063 ; fill
G1 X-5.035 Y3.795 E6.81756 ; fill
