; generated by Slic3r 0.9.8-dev on 2013-02-09 at 19:00:30

; layer_height = 0.20
; perimeters = 2
; top_solid_layers = 4
; bottom_solid_layers = 4
; fill_density = 0.25
; perimeter_speed = 40
; infill_speed = 40
; travel_speed = 40
; scale = 1
; nozzle_diameter = 0.35
; filament_diameter = 3
; extrusion_multiplier = 0.95
; perimeters extrusion width = 0.49mm
; infill extrusion width = 0.49mm
; support material extrusion width = 0.49mm
; first layer extrusion width = 0.37mm

M107 ; disable fan
M109 S80 ; wait for bed temperature to be reached
M104 S190 ; set temperature
(Machine: The Super Cupcake)
(Material: PLA)
(INITIALIZATION)
M73 P0          (enable build progress)
G21             (set units to mm)
G90             (set positioning to absolute)
M103            (Make sure extruder is off)
M104 S190 T0    (set extruder temperature)
M109 S100 T0    (set HBP temperature)
(HOMING)
G161 Z F60.0    (Move Z to minimum at 60 mm/min / 1 mm/s )
G92 X0 Y0 Z0 E0 (You are now at 0,0,0,0)
G90 ; use absolute coordinates
G21 ; set units to millimeters
G1 F900.000 E-1.00000 ; retract
G1 Z0.270 F78.000 ; move to next layer (0)
G1 X-12.903 Y-12.593 F2400.000 ; move to first skirt point
G1 F900.000 E0.00000 ; compensate retraction
G1 X-11.823 Y-13.603 F1560.000 E0.01952 ; skirt
G1 X-11.503 Y-13.873 E0.02504 ; skirt
G1 X-10.333 Y-14.773 E0.04453 ; skirt
G1 X-9.913 Y-15.053 E0.05119 ; skirt
G1 X-8.643 Y-15.813 E0.07073 ; skirt
G1 X-8.223 Y-16.033 E0.07698 ; skirt
G1 X-6.983 Y-16.603 E0.09500 ; skirt
G1 X-6.593 Y-16.763 E0.10056 ; skirt
G1 X-5.093 Y-17.283 E0.12152 ; skirt
G1 X-4.603 Y-17.423 E0.12824 ; skirt
G1 X-3.153 Y-17.743 E0.14784 ; skirt
G1 X-2.683 Y-17.823 E0.15414 ; skirt
G1 X-1.213 Y-17.983 E0.17365 ; skirt
G1 X-0.743 Y-18.003 E0.17986 ; skirt
G1 X0.737 Y-18.003 E0.19940 ; skirt
G1 X1.207 Y-17.983 E0.20561 ; skirt
G1 X2.677 Y-17.823 E0.22512 ; skirt
G1 X3.157 Y-17.743 E0.23155 ; skirt
G1 X4.597 Y-17.423 E0.25102 ; skirt
G1 X5.037 Y-17.303 E0.25704 ; skirt
G1 X6.437 Y-16.833 E0.27653 ; skirt
G1 X6.867 Y-16.663 E0.28263 ; skirt
G1 X8.217 Y-16.043 E0.30224 ; skirt
G1 X8.647 Y-15.813 E0.30868 ; skirt
G1 X9.907 Y-15.053 E0.32810 ; skirt
G1 X10.307 Y-14.783 E0.33447 ; skirt
G1 X11.487 Y-13.883 E0.35406 ; skirt
G1 X11.837 Y-13.583 E0.36014 ; skirt
G1 X12.907 Y-12.573 E0.37957 ; skirt
G1 X13.237 Y-12.233 E0.38582 ; skirt
G1 X14.197 Y-11.103 E0.40539 ; skirt
G1 X14.487 Y-10.713 E0.41181 ; skirt
G1 X15.317 Y-9.483 E0.43139 ; skirt
G1 X15.547 Y-9.093 E0.43737 ; skirt
G1 X16.237 Y-7.793 E0.45679 ; skirt
G1 X16.437 Y-7.363 E0.46305 ; skirt
G1 X16.987 Y-5.983 E0.48266 ; skirt
G1 X17.137 Y-5.543 E0.48880 ; skirt
G1 X17.537 Y-4.123 E0.50827 ; skirt
G1 X17.647 Y-3.653 E0.51464 ; skirt
G1 X17.887 Y-2.193 E0.53417 ; skirt
G1 X17.937 Y-1.703 E0.54067 ; skirt
G1 X18.007 Y-0.343 E0.55865 ; skirt
G1 X18.007 Y0.067 E0.56406 ; skirt
G1 X17.937 Y1.657 E0.58507 ; skirt
G1 X17.887 Y2.177 E0.59196 ; skirt
G1 X17.647 Y3.637 E0.61149 ; skirt
G1 X17.537 Y4.107 E0.61786 ; skirt
G1 X17.137 Y5.537 E0.63746 ; skirt
G1 X16.987 Y5.987 E0.64372 ; skirt
G1 X16.437 Y7.357 E0.66321 ; skirt
G1 X16.247 Y7.757 E0.66905 ; skirt
G1 X15.557 Y9.067 E0.68860 ; skirt
G1 X15.307 Y9.487 E0.69505 ; skirt
G1 X14.477 Y10.707 E0.71452 ; skirt
G1 X14.197 Y11.087 E0.72075 ; skirt
G1 X13.237 Y12.217 E0.74033 ; skirt
G1 X12.917 Y12.547 E0.74639 ; skirt
G1 X11.847 Y13.567 E0.76591 ; skirt
G1 X11.467 Y13.887 E0.77246 ; skirt
G1 X10.287 Y14.777 E0.79197 ; skirt
G1 X9.937 Y15.017 E0.79757 ; skirt
G1 X8.677 Y15.787 E0.81706 ; skirt
G1 X8.217 Y16.037 E0.82397 ; skirt
G1 X6.867 Y16.657 E0.84358 ; skirt
G1 X6.437 Y16.827 E0.84969 ; skirt
G1 X5.037 Y17.297 E0.86918 ; skirt
G1 X4.597 Y17.417 E0.87520 ; skirt
G1 X3.157 Y17.737 E0.89467 ; skirt
G1 X2.677 Y17.817 E0.90109 ; skirt
G1 X1.207 Y17.977 E0.92061 ; skirt
G1 X0.737 Y17.997 E0.92682 ; skirt
G1 X-0.743 Y17.997 E0.94635 ; skirt
G1 X-1.213 Y17.977 E0.95256 ; skirt
G1 X-2.683 Y17.817 E0.97208 ; skirt
G1 X-3.153 Y17.737 E0.97837 ; skirt
G1 X-4.603 Y17.417 E0.99797 ; skirt
G1 X-5.053 Y17.297 E1.00412 ; skirt
G1 X-6.453 Y16.827 E1.02361 ; skirt
G1 X-6.893 Y16.647 E1.02989 ; skirt
G1 X-8.233 Y16.027 E1.04938 ; skirt
G1 X-8.663 Y15.797 E1.05581 ; skirt
G1 X-9.933 Y15.027 E1.07542 ; skirt
G1 X-10.313 Y14.767 E1.08149 ; skirt
G1 X-11.483 Y13.877 E1.10090 ; skirt
G1 X-11.843 Y13.577 E1.10708 ; skirt
G1 X-12.923 Y12.557 E1.12669 ; skirt
G1 X-13.253 Y12.217 E1.13294 ; skirt
G1 X-14.213 Y11.087 E1.15252 ; skirt
G1 X-14.493 Y10.707 E1.15875 ; skirt
G1 X-15.323 Y9.487 E1.17822 ; skirt
G1 X-15.573 Y9.067 E1.18467 ; skirt
G1 X-16.263 Y7.757 E1.20422 ; skirt
G1 X-16.453 Y7.357 E1.21006 ; skirt
G1 X-17.003 Y5.987 E1.22955 ; skirt
G1 X-17.163 Y5.507 E1.23623 ; skirt
G1 X-17.553 Y4.077 E1.25579 ; skirt
G1 X-17.653 Y3.637 E1.26175 ; skirt
G1 X-17.893 Y2.177 E1.28128 ; skirt
G1 X-17.943 Y1.707 E1.28752 ; skirt
G1 X-18.023 Y0.237 E1.30695 ; skirt
G1 X-18.023 Y-0.243 E1.31328 ; skirt
G1 X-17.943 Y-1.723 E1.33285 ; skirt
G1 X-17.893 Y-2.193 E1.33908 ; skirt
G1 X-17.653 Y-3.653 E1.35861 ; skirt
G1 X-17.553 Y-4.103 E1.36470 ; skirt
G1 X-17.163 Y-5.523 E1.38414 ; skirt
G1 X-17.003 Y-5.993 E1.39069 ; skirt
G1 X-16.323 Y-7.643 E1.41425 ; skirt
G1 X-15.593 Y-9.053 E1.43520 ; skirt
G1 X-15.333 Y-9.483 E1.44184 ; skirt
G1 X-14.503 Y-10.713 E1.46142 ; skirt
G1 X-14.213 Y-11.103 E1.46784 ; skirt
G1 X-13.253 Y-12.233 E1.48741 ; skirt
G1 X-12.941 Y-12.554 E1.49331 ; skirt
G1 X-12.903 Y-12.593 E1.49403 ; skirt
G1 F900.000 E0.49403 ; retract
G1 X-3.466 Y-2.908 F2400.000 ; move to first perimeter point
G1 F900.000 E1.49403 ; compensate retraction
G1 X-2.908 Y-3.466 F1560.000 E1.50444 ; perimeter
G1 X-2.262 Y-3.918 E1.51485 ; perimeter
G1 X-1.548 Y-4.252 E1.52527 ; perimeter
G1 X-0.786 Y-4.456 E1.53568 ; perimeter
G1 X-0.000 Y-4.525 E1.54609 ; perimeter
G1 X0.786 Y-4.456 E1.55650 ; perimeter
G1 X1.548 Y-4.252 E1.56691 ; perimeter
G1 X2.262 Y-3.918 E1.57732 ; perimeter
G1 X2.908 Y-3.466 E1.58773 ; perimeter
G1 X3.466 Y-2.908 E1.59814 ; perimeter
G1 X3.918 Y-2.262 E1.60855 ; perimeter
G1 X4.252 Y-1.548 E1.61896 ; perimeter
G1 X4.456 Y-0.786 E1.62937 ; perimeter
G1 X4.525 Y0.000 E1.63978 ; perimeter
G1 X4.456 Y0.786 E1.65019 ; perimeter
G1 X4.252 Y1.548 E1.66060 ; perimeter
G1 X3.918 Y2.262 E1.67101 ; perimeter
G1 X3.466 Y2.909 E1.68143 ; perimeter
G1 X2.909 Y3.466 E1.69183 ; perimeter
G1 X2.273 Y3.911 E1.70207 ; perimeter
G1 X1.500 Y4.265 E1.71329 ; perimeter
G1 X0.789 Y4.455 E1.72301 ; perimeter
G1 X-0.001 Y4.525 E1.73347 ; perimeter
G1 X-0.767 Y4.458 E1.74362 ; perimeter
G1 X-1.534 Y4.256 E1.75410 ; perimeter
G1 X-2.262 Y3.919 E1.76468 ; perimeter
G1 X-2.908 Y3.467 E1.77509 ; perimeter
G1 X-3.466 Y2.908 E1.78551 ; perimeter
G1 X-3.918 Y2.262 E1.79592 ; perimeter
G1 X-4.252 Y1.548 E1.80633 ; perimeter
G1 X-4.456 Y0.786 E1.81674 ; perimeter
G1 X-4.525 Y0.000 E1.82715 ; perimeter
G1 X-4.456 Y-0.786 E1.83756 ; perimeter
G1 X-4.252 Y-1.548 E1.84797 ; perimeter
G1 X-3.918 Y-2.262 E1.85838 ; perimeter
G1 X-3.497 Y-2.864 E1.86807 ; perimeter
G1 X-3.466 Y-2.908 E1.86879 ; perimeter
G1 X-3.186 Y-2.674 F2400.000 ; move to first perimeter point
G1 X-2.674 Y-3.186 F1560.000 E1.87836 ; perimeter
G1 X-2.080 Y-3.602 E1.88793 ; perimeter
G1 X-1.423 Y-3.909 E1.89750 ; perimeter
G1 X-0.722 Y-4.096 E1.90707 ; perimeter
G1 X-0.000 Y-4.160 E1.91664 ; perimeter
G1 X0.722 Y-4.096 E1.92621 ; perimeter
G1 X1.423 Y-3.909 E1.93578 ; perimeter
G1 X2.080 Y-3.602 E1.94535 ; perimeter
G1 X2.674 Y-3.186 E1.95492 ; perimeter
G1 X3.186 Y-2.674 E1.96449 ; perimeter
G1 X3.602 Y-2.080 E1.97406 ; perimeter
G1 X3.909 Y-1.423 E1.98363 ; perimeter
G1 X4.096 Y-0.722 E1.99320 ; perimeter
G1 X4.160 Y0.000 E2.00277 ; perimeter
G1 X4.096 Y0.722 E2.01234 ; perimeter
G1 X3.909 Y1.423 E2.02191 ; perimeter
G1 X3.602 Y2.080 E2.03148 ; perimeter
G1 X3.186 Y2.674 E2.04107 ; perimeter
G1 X2.674 Y3.186 E2.05062 ; perimeter
G1 X2.085 Y3.599 E2.06012 ; perimeter
G1 X1.402 Y3.914 E2.07005 ; perimeter
G1 X0.724 Y4.096 E2.07931 ; perimeter
G1 X-0.001 Y4.160 E2.08892 ; perimeter
G1 X-0.714 Y4.097 E2.09836 ; perimeter
G1 X-1.417 Y3.910 E2.10796 ; perimeter
G1 X-2.080 Y3.602 E2.11761 ; perimeter
G1 X-2.673 Y3.187 E2.12717 ; perimeter
G1 X-3.187 Y2.673 E2.13676 ; perimeter
G1 X-3.602 Y2.080 E2.14632 ; perimeter
G1 X-3.909 Y1.423 E2.15589 ; perimeter
G1 X-4.096 Y0.722 E2.16546 ; perimeter
G1 X-4.160 Y0.000 E2.17503 ; perimeter
G1 X-4.096 Y-0.722 E2.18460 ; perimeter
G1 X-3.909 Y-1.423 E2.19417 ; perimeter
G1 X-3.602 Y-2.080 E2.20374 ; perimeter
G1 X-3.218 Y-2.629 E2.21259 ; perimeter
G1 X-3.186 Y-2.674 E2.21331 ; perimeter
G1 X-3.301 Y-3.019 F2400.000 ; move inwards before travel
G1 F900.000 E1.21331 ; retract
G1 X-13.217 Y-1.437 F2400.000 ; move to first perimeter point
G1 F900.000 E2.21331 ; compensate retraction
G1 X-12.984 Y-2.858 F1560.000 E2.23231 ; perimeter
G1 X-12.599 Y-4.245 E2.25131 ; perimeter
G1 X-12.066 Y-5.582 E2.27032 ; perimeter
G1 X-11.437 Y-6.768 E2.28803 ; perimeter
G1 X-10.584 Y-8.046 E2.30831 ; perimeter
G1 X-9.652 Y-9.143 E2.32731 ; perimeter
G1 X-8.607 Y-10.133 E2.34631 ; perimeter
G1 X-7.461 Y-11.004 E2.36531 ; perimeter
G1 X-6.227 Y-11.746 E2.38431 ; perimeter
G1 X-4.921 Y-12.350 E2.40331 ; perimeter
G1 X-3.557 Y-12.810 E2.42231 ; perimeter
G1 X-2.151 Y-13.120 E2.44131 ; perimeter
G1 X-0.720 Y-13.275 E2.46032 ; perimeter
G1 X0.720 Y-13.275 E2.47932 ; perimeter
G1 X2.151 Y-13.120 E2.49832 ; perimeter
G1 X3.557 Y-12.810 E2.51732 ; perimeter
G1 X4.921 Y-12.350 E2.53632 ; perimeter
G1 X6.227 Y-11.746 E2.55532 ; perimeter
G1 X7.461 Y-11.004 E2.57432 ; perimeter
G1 X8.607 Y-10.133 E2.59332 ; perimeter
G1 X9.652 Y-9.143 E2.61232 ; perimeter
G1 X10.584 Y-8.046 E2.63132 ; perimeter
G1 X11.392 Y-6.854 E2.65032 ; perimeter
G1 X12.066 Y-5.582 E2.66932 ; perimeter
G1 X12.599 Y-4.245 E2.68832 ; perimeter
G1 X12.984 Y-2.858 E2.70732 ; perimeter
G1 X13.217 Y-1.437 E2.72632 ; perimeter
G1 X13.295 Y-0.000 E2.74533 ; perimeter
G1 X13.222 Y1.340 E2.76304 ; perimeter
G1 X12.984 Y2.858 E2.78332 ; perimeter
G1 X12.599 Y4.245 E2.80232 ; perimeter
G1 X12.066 Y5.582 E2.82132 ; perimeter
G1 X11.392 Y6.854 E2.84032 ; perimeter
G1 X10.584 Y8.046 E2.85932 ; perimeter
G1 X9.652 Y9.143 E2.87832 ; perimeter
G1 X8.607 Y10.133 E2.89732 ; perimeter
G1 X7.461 Y11.004 E2.91632 ; perimeter
G1 X6.227 Y11.746 E2.93533 ; perimeter
G1 X4.921 Y12.350 E2.95433 ; perimeter
G1 X3.557 Y12.810 E2.97333 ; perimeter
G1 X2.151 Y13.120 E2.99233 ; perimeter
G1 X0.720 Y13.275 E3.01133 ; perimeter
G1 X-0.720 Y13.275 E3.03033 ; perimeter
G1 X-2.151 Y13.120 E3.04933 ; perimeter
G1 X-3.557 Y12.810 E3.06833 ; perimeter
G1 X-4.921 Y12.350 E3.08733 ; perimeter
G1 X-6.227 Y11.746 E3.10633 ; perimeter
G1 X-7.461 Y11.004 E3.12533 ; perimeter
G1 X-8.607 Y10.133 E3.14433 ; perimeter
G1 X-9.652 Y9.143 E3.16333 ; perimeter
G1 X-10.584 Y8.046 E3.18233 ; perimeter
G1 X-11.392 Y6.854 E3.20134 ; perimeter
G1 X-12.066 Y5.582 E3.22034 ; perimeter
G1 X-12.599 Y4.245 E3.23934 ; perimeter
G1 X-12.984 Y2.858 E3.25834 ; perimeter
G1 X-13.217 Y1.437 E3.27734 ; perimeter
G1 X-13.295 Y-0.000 E3.29634 ; perimeter
G1 X-13.220 Y-1.383 E3.31462 ; perimeter
G1 X-13.217 Y-1.437 E3.31534 ; perimeter
G1 X-13.579 Y-1.477 F2400.000 ; move to first perimeter point
G1 X-13.340 Y-2.936 F936.000 E3.33486 ; perimeter
G1 X-12.944 Y-4.361 E3.35438 ; perimeter
G1 X-12.397 Y-5.735 E3.37390 ; perimeter
G1 X-11.759 Y-6.938 E3.39187 ; perimeter
G1 X-10.874 Y-8.266 E3.41294 ; perimeter
G1 X-9.916 Y-9.393 E3.43246 ; perimeter
G1 X-8.843 Y-10.410 E3.45198 ; perimeter
G1 X-7.665 Y-11.305 E3.47150 ; perimeter
G1 X-6.398 Y-12.068 E3.49102 ; perimeter
G1 X-5.056 Y-12.689 E3.51054 ; perimeter
G1 X-3.766 Y-13.124 E3.52851 ; perimeter
G1 X-2.210 Y-13.479 E3.54958 ; perimeter
G1 X-0.739 Y-13.639 E3.56910 ; perimeter
G1 X0.739 Y-13.639 E3.58862 ; perimeter
G1 X2.210 Y-13.479 E3.60814 ; perimeter
G1 X3.654 Y-13.161 E3.62766 ; perimeter
G1 X5.056 Y-12.689 E3.64718 ; perimeter
G1 X6.398 Y-12.068 E3.66671 ; perimeter
G1 X7.665 Y-11.305 E3.68623 ; perimeter
G1 X8.843 Y-10.410 E3.70575 ; perimeter
G1 X9.916 Y-9.393 E3.72527 ; perimeter
G1 X10.874 Y-8.266 E3.74479 ; perimeter
G1 X11.704 Y-7.042 E3.76431 ; perimeter
G1 X12.397 Y-5.735 E3.78383 ; perimeter
G1 X12.944 Y-4.361 E3.80336 ; perimeter
G1 X13.340 Y-2.936 E3.82288 ; perimeter
G1 X13.579 Y-1.477 E3.84240 ; perimeter
G1 X13.659 Y-0.000 E3.86192 ; perimeter
G1 X13.585 Y1.359 E3.87989 ; perimeter
G1 X13.340 Y2.936 E3.90095 ; perimeter
G1 X12.944 Y4.361 E3.92047 ; perimeter
G1 X12.397 Y5.735 E3.94000 ; perimeter
G1 X11.704 Y7.042 E3.95952 ; perimeter
G1 X10.874 Y8.266 E3.97904 ; perimeter
G1 X9.916 Y9.393 E3.99856 ; perimeter
G1 X8.843 Y10.410 E4.01808 ; perimeter
G1 X7.665 Y11.305 E4.03760 ; perimeter
G1 X6.398 Y12.068 E4.05712 ; perimeter
G1 X5.056 Y12.689 E4.07665 ; perimeter
G1 X3.654 Y13.161 E4.09617 ; perimeter
G1 X2.210 Y13.479 E4.11569 ; perimeter
G1 X0.739 Y13.639 E4.13521 ; perimeter
G1 X-0.739 Y13.639 E4.15473 ; perimeter
G1 X-2.210 Y13.479 E4.17425 ; perimeter
G1 X-3.654 Y13.161 E4.19377 ; perimeter
G1 X-5.056 Y12.689 E4.21329 ; perimeter
G1 X-6.398 Y12.068 E4.23282 ; perimeter
G1 X-7.665 Y11.305 E4.25234 ; perimeter
G1 X-8.843 Y10.410 E4.27186 ; perimeter
G1 X-9.916 Y9.393 E4.29138 ; perimeter
G1 X-10.874 Y8.266 E4.31090 ; perimeter
G1 X-11.704 Y7.042 E4.33042 ; perimeter
G1 X-12.397 Y5.735 E4.34994 ; perimeter
G1 X-12.944 Y4.361 E4.36947 ; perimeter
G1 X-13.340 Y2.936 E4.38899 ; perimeter
G1 X-13.579 Y1.477 E4.40851 ; perimeter
G1 X-13.659 Y0.000 E4.42803 ; perimeter
G1 X-13.582 Y-1.422 E4.44683 ; perimeter
G1 X-13.579 Y-1.477 E4.44755 ; perimeter
G1 X-13.243 Y-1.618 F2400.000 ; move inwards before travel
G1 F900.000 E3.44755 ; retract
G1 X-11.156 Y6.609 F2400.000 ; move to first fill point
G1 F900.000 E4.44755 ; compensate retraction
G1 X-6.653 Y11.111 F1560.000 E4.53168 ; fill
G1 X-5.511 Y11.739 E4.54890 ; fill
G1 X-11.755 Y5.495 E4.66558 ; fill
G1 X-12.136 Y4.599 E4.67844 ; fill
G1 X-4.575 Y12.160 E4.81972 ; fill
G1 X-3.798 Y12.422 E4.83055 ; fill
G1 X-12.432 Y3.788 E4.99187 ; fill
G1 X-12.630 Y3.075 E5.00164 ; fill
G1 X-3.070 Y12.635 E5.18027 ; fill
G1 X-2.410 Y12.781 E5.18920 ; fill
G1 X-12.787 Y2.403 E5.38310 ; fill
G1 X-12.888 Y1.788 E5.39134 ; fill
G1 X-1.778 Y12.898 E5.59893 ; fill
G1 X-1.200 Y12.960 E5.60661 ; fill
G1 X-12.976 Y1.185 E5.82664 ; fill
G1 X-13.005 Y0.640 E5.83385 ; fill
G1 X-0.622 Y13.023 E6.06523 ; fill
G1 X-0.103 Y13.027 E6.07209 ; fill
G1 X-13.035 Y0.096 E6.31372 ; fill
G1 X-13.030 Y-0.415 E6.32046 ; fill
G1 X0.412 Y13.027 E6.57162 ; fill
G1 X0.916 Y13.016 E6.57828 ; fill
G1 X-13.004 Y-0.903 E6.83837 ; fill
G1 X-12.977 Y-1.391 E6.84483 ; fill
G1 X1.380 Y12.966 E7.11310 ; fill
G1 X1.845 Y12.915 E7.11927 ; fill
G1 X-12.916 Y-1.845 E7.39508 ; fill
G1 X-12.844 Y-2.288 E7.40100 ; fill
G1 X2.300 Y12.856 E7.68395 ; fill
G1 X2.722 Y12.763 E7.68966 ; fill
G1 X-12.771 Y-2.730 E7.97915 ; fill
G1 X-12.674 Y-3.148 E7.98482 ; fill
G1 X3.144 Y12.670 E8.28037 ; fill
G1 X3.566 Y12.577 E8.28608 ; fill
G1 X-12.562 Y-3.551 E8.58743 ; fill
G1 X-12.450 Y-3.954 E8.59296 ; fill
G1 X3.952 Y12.448 E8.89943 ; fill
G1 X4.337 Y12.318 E8.90480 ; fill
G1 X-12.328 Y-4.347 E9.21620 ; fill
G1 X-12.182 Y-4.715 E9.22143 ; fill
G1 X4.722 Y12.188 E9.53729 ; fill
G1 X5.090 Y12.041 E9.54252 ; fill
G1 X-12.035 Y-5.084 E9.86249 ; fill
G1 X-11.888 Y-5.452 E9.86773 ; fill
G1 X-4.331 Y2.105 E10.00894 ; fill
G1 X-4.606 Y1.316 E10.01998 ; fill
G1 X-11.713 Y-5.792 E10.15279 ; fill
G1 X-11.536 Y-6.130 E10.15783 ; fill
G1 X-4.724 Y0.682 E10.28511 ; fill
G1 X-4.774 Y0.118 E10.29260 ; fill
G1 X-11.360 Y-6.468 E10.41565 ; fill
G1 X-11.181 Y-6.804 E10.42068 ; fill
G1 X-4.733 Y-0.356 E10.54116 ; fill
G1 X-4.678 Y-0.816 E10.54728 ; fill
G1 X-10.973 Y-7.111 E10.66490 ; fill
G1 X-10.765 Y-7.418 E10.66980 ; fill
G1 X-4.569 Y-1.222 E10.78557 ; fill
G1 X-4.450 Y-1.618 E10.79104 ; fill
G1 X-10.556 Y-7.724 E10.90513 ; fill
G1 X-10.340 Y-8.023 E10.91000 ; fill
G1 X-4.287 Y-1.969 E11.02311 ; fill
G1 X-4.123 Y-2.321 E11.02823 ; fill
G1 X-10.104 Y-8.301 E11.13998 ; fill
